svg/logo.svg

<?xml version="1.0" encoding="utf-8"?>
<!-- Generator: Adobe Illustrator 16.0.0, SVG Export Plug-In . SVG Version: 6.00 Build 0)  -->
<!DOCTYPE svg PUBLIC "-//W3C//DTD SVG 1.1//EN" "http://www.w3.org/Graphics/SVG/1.1/DTD/svg11.dtd">
<svg version="1.1" id="Layer_1" xmlns="http://www.w3.org/2000/svg" xmlns:xlink="http://www.w3.org/1999/xlink" x="0px" y="0px"
	 width="220.875px" height="29.562px" viewBox="0 0 220.875 29.562" enable-background="new 0 0 220.875 29.562"
	 xml:space="preserve">
<path fill="#3CADB2" d="M11.086,15.826c2.152,0,3.15,1.633,3.36,3.952c0.049,0.556-0.002,1.364-0.074,2.301
	c-0.242,3.114-0.52,6.939,1.553,6.939c1.753,0,2.654-3.363,3.174-7.198c0.502-3.795-0.03-5.685,0.231-7.369
	c0.498-3.193,3.286-6.056,2.424-10.128c-0.477-2.259-1.72-3.321-2.953-3.768c-2.838-1.033-4.67,0.957-7.718,0.957
	s-4.88-1.99-7.719-0.957C2.135,1.002,0.891,2.064,0.414,4.323c-0.86,4.071,1.926,6.935,2.426,10.128
	c0.261,1.685-0.27,3.574,0.232,7.369c0.52,3.834,1.42,7.198,3.174,7.198c2.071,0,1.795-3.825,1.553-6.939
	c-0.071-0.937-0.124-1.746-0.074-2.301C7.934,17.458,8.945,15.826,11.086,15.826L11.086,15.826z"/>
<g>
	<path fill="#3CADB2" d="M27.138,26.492V2.483h8.207c7.451,0,12.311,5.219,12.311,12.022c0,6.839-4.859,11.986-12.311,11.986H27.138
		z M44.56,14.505c0-5.184-3.275-9.359-9.215-9.359h-5.219v18.682h5.219C41.176,23.828,44.56,19.652,44.56,14.505z"/>
	<path fill="#3CADB2" d="M51.222,17.781c0-5.04,3.6-9.107,8.567-9.107c5.255,0,8.351,4.104,8.351,9.323v0.684H54.065
		c0.216,3.275,2.52,6.011,6.263,6.011c1.979,0,3.995-0.792,5.363-2.196l1.296,1.764c-1.728,1.728-4.068,2.664-6.911,2.664
		C54.929,26.924,51.222,23.216,51.222,17.781z M59.752,10.906c-3.708,0-5.543,3.131-5.687,5.795h11.41
		C65.44,14.109,63.712,10.906,59.752,10.906z"/>
	<path fill="#3CADB2" d="M84.231,26.492V15.117c0-3.06-1.548-4.032-3.887-4.032c-2.124,0-4.14,1.296-5.147,2.7v12.707h-2.7V9.106
		h2.7v2.52c1.224-1.44,3.6-2.952,6.191-2.952c3.636,0,5.543,1.836,5.543,5.615v12.203H84.231z"/>
	<path fill="#3CADB2" d="M92.873,22.856V11.481h-2.88V9.106h2.88V4.354h2.7v4.751H99.1v2.375h-3.527V22.28
		c0,1.296,0.576,2.231,1.764,2.231c0.756,0,1.476-0.324,1.836-0.72l0.792,2.016c-0.685,0.648-1.656,1.116-3.24,1.116
		C94.169,26.924,92.873,25.448,92.873,22.856z"/>
	<path fill="#3CADB2" d="M102.449,4.822c0-1.008,0.828-1.835,1.8-1.835c1.008,0,1.836,0.828,1.836,1.835s-0.828,1.8-1.836,1.8
		C103.277,6.622,102.449,5.83,102.449,4.822z M102.917,26.492V9.106h2.7v17.386H102.917z"/>
	<path fill="#3CADB2" d="M109.505,24.188l1.404-1.944c1.15,1.332,3.348,2.484,5.723,2.484c2.664,0,4.104-1.26,4.104-2.988
		c0-4.211-10.762-1.62-10.762-8.063c0-2.7,2.338-5.003,6.479-5.003c2.951,0,5.039,1.116,6.443,2.52l-1.26,1.872
		c-1.045-1.26-2.953-2.196-5.184-2.196c-2.377,0-3.852,1.188-3.852,2.736c0,3.815,10.762,1.296,10.762,8.063
		c0,2.916-2.34,5.255-6.838,5.255C113.681,26.924,111.269,26.06,109.505,24.188z"/>
	<path fill="#3CADB2" d="M128.296,22.856V11.481h-2.879V9.106h2.879V4.354h2.699v4.751h3.527v2.375h-3.527V22.28
		c0,1.296,0.576,2.231,1.764,2.231c0.756,0,1.477-0.324,1.836-0.72l0.793,2.016c-0.686,0.648-1.656,1.116-3.24,1.116
		C129.591,26.924,128.296,25.448,128.296,22.856z"/>
	<path fill="#3CADB2" d="M137.009,23.108l1.764-2.268c1.584,1.764,4.174,3.419,7.559,3.419c4.283,0,5.65-2.304,5.65-4.139
		c0-6.191-14.217-2.772-14.217-11.339c0-3.959,3.527-6.659,8.242-6.659c3.672,0,6.516,1.224,8.531,3.348l-1.801,2.196
		c-1.799-1.979-4.318-2.879-6.947-2.879c-2.879,0-4.93,1.547-4.93,3.815c0,5.399,14.217,2.304,14.217,11.267
		c0,3.491-2.375,7.055-8.854,7.055C142.048,26.924,138.987,25.34,137.009,23.108z"/>
	<path fill="#3CADB2" d="M180.421,26.492V14.685c0-2.196-0.973-3.6-3.203-3.6c-1.801,0-3.709,1.296-4.607,2.664v12.742h-2.699
		V14.685c0-2.196-0.938-3.6-3.205-3.6c-1.764,0-3.635,1.296-4.57,2.7v12.707h-2.701V9.106h2.701v2.52
		c0.719-1.116,3.059-2.952,5.615-2.952c2.664,0,4.176,1.44,4.68,3.24c0.971-1.584,3.311-3.24,5.83-3.24
		c3.168,0,4.859,1.764,4.859,5.255v12.562H180.421z"/>
	<path fill="#3CADB2" d="M188.056,4.822c0-1.008,0.828-1.835,1.799-1.835c1.008,0,1.836,0.828,1.836,1.835s-0.828,1.8-1.836,1.8
		C188.884,6.622,188.056,5.83,188.056,4.822z M188.522,26.492V9.106h2.701v17.386H188.522z"/>
	<path fill="#3CADB2" d="M196.622,26.492V2.483h2.701v24.009H196.622z"/>
	<path fill="#3CADB2" d="M203.716,17.781c0-5.04,3.6-9.107,8.566-9.107c5.256,0,8.352,4.104,8.352,9.323v0.684H206.56
		c0.215,3.275,2.52,6.011,6.264,6.011c1.979,0,3.994-0.792,5.363-2.196l1.295,1.764c-1.727,1.728-4.066,2.664-6.91,2.664
		C207.423,26.924,203.716,23.216,203.716,17.781z M212.247,10.906c-3.707,0-5.543,3.131-5.688,5.795h11.41
		C217.935,14.109,216.206,10.906,212.247,10.906z"/>
</g>
</svg>

<?xml version="1.0" encoding="UTF-8"?>
<!DOCTYPE svg PUBLIC "-//W3C//DTD SVG 1.1//EN" "http://www.w3.org/Graphics/SVG/1.1/DTD/svg11.dtd">
<svg version="1.1" xmlns="http://www.w3.org/2000/svg" xmlns:xlink="http://www.w3.org/1999/xlink" x="0" y="0" width="220.875" height="29.562" viewBox="0, 0, 220.875, 29.562">
  <g id="Layer_1">
    <path d="M11.086,15.826 C13.238,15.826 14.236,17.459 14.446,19.778 C14.495,20.334 14.444,21.142 14.372,22.079 C14.13,25.193 13.852,29.018 15.925,29.018 C17.678,29.018 18.579,25.655 19.099,21.82 C19.601,18.025 19.069,16.135 19.33,14.451 C19.828,11.258 22.616,8.395 21.754,4.323 C21.277,2.064 20.034,1.002 18.801,0.555 C15.963,-0.478 14.131,1.512 11.083,1.512 C8.035,1.512 6.203,-0.478 3.364,0.555 C2.135,1.002 0.891,2.064 0.414,4.323 C-0.446,8.394 2.34,11.258 2.84,14.451 C3.101,16.136 2.57,18.025 3.072,21.82 C3.592,25.654 4.492,29.018 6.246,29.018 C8.317,29.018 8.041,25.193 7.799,22.079 C7.728,21.142 7.675,20.333 7.725,19.778 C7.934,17.458 8.945,15.826 11.086,15.826 L11.086,15.826 z" fill="#3CADB2"/>
    <text transform="matrix(1, 0, 0, 1, 124.571, 25.658)">
      <tspan x="-51.201" y="0" font-family="ChaparralPro-Regular" font-size="13" fill="#000000">Dentista Fontaniva</tspan>
    </text>
    <text transform="matrix(1, 0, 0, 1, 124.571, 20.52)">
      <tspan x="-79.84" y="-7" font-family="ChaparralPro-Bold" font-size="16" fill="#42ADB1">Dott. Stefania Rinaldi</tspan>
    </text>
  </g>
</svg>
